X:72
T: JETZT LASST UNS MAL SINGEN
N: E1077
O: Europa, Mitteleuropa, Deutschland, Rheinland, Neuwied, Wollendorf
R: Wett - Lied, Streit zwischen Wasser und Wein
M: 6/8
L: 1/16
K: G
G2 | G2B2G2G4d2 | d2c2A2G4
g2 | g2d2d2d2d2d2 | e2d2^c2d4
d2 | d2g2d2d2B2G2 | e6d4
d2 | d2B2BBB2A2G2 | A4d2G4

